packages/core/src/svgs/wallets/branded/unipass.svg

<svg width="24" height="24" viewBox="0 0 24 24" fill="none" xmlns="http://www.w3.org/2000/svg">
<path fill-rule="evenodd" clip-rule="evenodd" d="M17.0216 5.65179C17.0216 5.47916 16.9515 5.31358 16.8266 5.19138C16.7018 5.06919 16.5324 5.00036 16.3557 5H12.6894C12.5125 5 12.3427 5.06867 12.2176 5.1909C12.0924 5.31314 12.0221 5.47892 12.0221 5.65179V9.09523C12.0225 9.26786 12.0929 9.4333 12.2181 9.55524C12.3432 9.67718 12.5127 9.74567 12.6894 9.74567H16.3143C16.4026 9.74202 16.4906 9.75758 16.572 9.7912C16.6534 9.82483 16.7262 9.87568 16.785 9.9401C16.8439 10.0045 16.8873 10.0809 16.9122 10.1637C16.9372 10.2465 16.943 10.3337 16.9292 10.419C16.5156 12.4 14.8155 13.9379 12.6881 14.2072C12.5101 14.2243 12.3446 14.3039 12.2221 14.4312C12.0996 14.5585 12.0286 14.7248 12.0221 14.8994V18.3428C12.0207 18.4278 12.0371 18.5122 12.0705 18.5907C12.1038 18.6692 12.1532 18.7403 12.2158 18.7993C12.2784 18.8584 12.3527 18.9043 12.4342 18.9342C12.5156 18.9641 12.6025 18.9773 12.6894 18.9731C17.6738 18.6619 21.6613 14.8832 21.9991 10.1551C22.0038 10.0702 21.9906 9.98526 21.9602 9.9056C21.9299 9.82594 21.883 9.75325 21.8226 9.69209C21.7621 9.63092 21.6894 9.58257 21.609 9.55009C21.5286 9.51759 21.4422 9.50166 21.3552 9.50327H17.6889C17.512 9.50327 17.3422 9.43459 17.2171 9.31236C17.0919 9.19013 17.0216 9.02434 17.0216 8.85148V5.65179Z" fill="#42EAB2"/>
<path fill-rule="evenodd" clip-rule="evenodd" d="M6.99958 18.3482C6.99958 18.5208 6.92946 18.6864 6.80461 18.8086C6.67976 18.9308 6.51038 18.9996 6.33363 19H2.66604C2.4893 18.9996 2.31991 18.9308 2.19506 18.8086C2.07021 18.6864 2.00008 18.5208 2.00009 18.3482V14.9048C2.00009 14.7323 2.07025 14.5668 2.19514 14.4448C2.32003 14.3228 2.48942 14.2543 2.66604 14.2543H6.29226C6.38118 14.2579 6.46979 14.2421 6.55165 14.208C6.63352 14.1739 6.70656 14.1224 6.76547 14.0572C6.82438 13.9921 6.86767 13.9149 6.89219 13.8314C6.91671 13.7478 6.92184 13.66 6.9072 13.5742C6.69204 12.59 6.16752 11.696 5.40692 11.0171C4.64631 10.3382 3.68759 9.90829 2.66466 9.78739C2.48695 9.76993 2.32173 9.6902 2.19955 9.56295C2.07738 9.4357 2.00652 9.26954 2.00009 9.09521V5.65176C1.99866 5.56678 2.01511 5.48241 2.04843 5.40388C2.08175 5.32536 2.13122 5.25435 2.19379 5.19527C2.25635 5.13618 2.33067 5.09027 2.41215 5.06039C2.49362 5.0305 2.58051 5.01727 2.66742 5.02152C7.65175 5.33395 11.6365 9.11137 11.977 13.8395C11.9818 13.9244 11.9686 14.0093 11.9382 14.089C11.9078 14.1686 11.861 14.2413 11.8005 14.3025C11.7401 14.3637 11.6674 14.412 11.587 14.4445C11.5066 14.477 11.4201 14.4929 11.3331 14.4913H7.66692C7.49017 14.4913 7.32064 14.5598 7.19553 14.6817C7.07042 14.8037 6.99995 14.9691 6.99958 15.1418V18.3482Z" fill="#42EAB2"/>
</svg>

<svg xmlns="http://www.w3.org/2000/svg" width="24" height="24" fill="none" viewBox="0 0 24 24">
    <path fill="#42EAB2" fill-rule="evenodd" d="M17.022 5.652a.64.64 0 0 0-.195-.46.68.68 0 0 0-.471-.192h-3.667a.68.68 0 0 0-.471.19.64.64 0 0 0-.196.462v3.443c0 .173.07.338.196.46.125.122.295.19.471.19h3.625a.61.61 0 0 1 .471.195.58.58 0 0 1 .144.479c-.413 1.981-2.113 3.519-4.24 3.788a.75.75 0 0 0-.467.224.7.7 0 0 0-.2.468v3.444a.6.6 0 0 0 .194.456.64.64 0 0 0 .473.174c4.985-.311 8.972-4.09 9.31-8.818a.6.6 0 0 0-.176-.463.64.64 0 0 0-.468-.189H17.69a.68.68 0 0 1-.472-.19.64.64 0 0 1-.195-.462zM7 18.348c0 .173-.07.338-.195.46a.68.68 0 0 1-.471.192H2.666a.68.68 0 0 1-.47-.191.64.64 0 0 1-.196-.46v-3.444c0-.173.07-.338.195-.46a.67.67 0 0 1 .471-.19h3.626a.61.61 0 0 0 .473-.198.58.58 0 0 0 .142-.483 4.8 4.8 0 0 0-1.5-2.557 5 5 0 0 0-2.742-1.23.75.75 0 0 1-.465-.224.7.7 0 0 1-.2-.468V5.652a.6.6 0 0 1 .194-.457.64.64 0 0 1 .473-.173c4.985.312 8.97 4.09 9.31 8.817a.6.6 0 0 1-.177.463.63.63 0 0 1-.467.19H7.667a.68.68 0 0 0-.471.19.64.64 0 0 0-.196.46z" clip-rule="evenodd"/>
</svg>
